X:1
T:Nocturne in A-flat major
T:Nocturne in A-flat major
T:Aleksandr Scriabin 
C:Aleksandr Scriabin
%%score { ( 1 3 ) | 2 }
L:1/8
Q:1/4=60
M:6/8
K:Ab
V:1 treble nm="Piano" snm="Pno."
V:3 treble 
V:2 bass 
V:1
!f! c3!p! c3 |!<(! e!<)!!>(!fe!>)! c3 | z2 z !>!e3 | z2 z !>!e3 |!f! x6 | x6 | %6
 z2 z"^rit." !>!e!>!f!>!e |!>(! A3!>)!!pp!!8va(! a''!8va)! x2 | %8
!<(! ABc!<)!"^rit."[Q:1/4=55]!mf!!>(! (.B/.A/.G/[Q:1/4=50].d/.c/.B/)!>)! | %9
"^a tempo"[Q:1/4=60]!pp!!<(! ABc!<)!"^rit."[Q:1/4=55]!mf!!>(! (.B/.A/.G/[Q:1/4=50].d/.c/.B/)!>)! | %10
"^a tempo"[Q:1/4=60] AAB cBA | %11
 !>![CEA]/!8va(!(([c'a']/[ae']/[fd']/[ec']/[ca]/!8va)!"^rit."[Q:1/4=55] [Bdg]/[Adf]/[Q:1/4=50][Gde]/[FAd]/[Q:1/4=30][EGc]/[DGB]/)) | %12
[Q:1/4=60] c3 c3 | (efe c3) | z2 z !>!e!>!f!>!e | !>!A2!8va(! [ac'e'a'] [a'c''e''a'']!8va)! z z | %16
[K:C]!p! x6 |!p! x6 |!p! z6 | %19
 [F_A_cdf]/[A_a]/[Gg]/[Ff]/[_EG=c_e]/ z/ [_E_G__Bce]/[Dd]/[Cc]/[Ee]/"_dim."[Dd]/[Cc]/ | %20
 [DGB][CDFA]!p![B,DG]!f! [cec']/[ceg]/[ce^f]/[ceg]/{/b}[cea]/[ceg]/ | %21
 [Bdg]/4[K:bass]G,,/4^F,,/4G,,/4_A,,/4G,,/4=A,,/4G,,/4_B,,/4G,,/4=B,,/4G,,/4[K:treble] [cec']/[ceg]/[ce^f]/[ceg]/{/b}[cea]/[ceg]/ | %22
 !>![Bdg]/4[K:bass]G,,/4^F,,/4G,,/4_A,,/4G,,/4=A,,/4G,,/4_B,,/4G,,/4=B,,/4G,,/4[K:treble][Q:1/4=20] [cge'c''][Gce][Q:1/4=10][Gce] | %23
[K:Ab][M:3/4]!pp!"_dolce legato"[Q:1/4=60] [Ace]2 [GBe]2 (3[FAc]=de | [GBe]2 [Ace]2 (3[FAc]=de | %25
 [Acf]2 (3[FAd]ef [FAc]2 | [EAc]2 [EGB]2 [EA]2 |[M:6/8]!f! c3!p! c3 |!<(! e!<)!!>(!fe!>)! c3 | %29
 z2 z !>!e3 | z2 z !>!e3 |!f! x6 | x6 | z2 z"^rit." !>!e!>!f!>!e | %34
!>(! A3!>)!!pp!!8va(! a''!8va)! x2 | %35
!<(! ABc!<)!"^rit."!mf![Q:1/4=55]!>(! (.B/.A/[Q:1/4=50].G/.d/.c/.B/)!>)! | %36
"^a tempo"!pp![Q:1/4=60]!<(! ABc!<)!"^rit."[Q:1/4=55]!mf!!>(! (.B/.A/[Q:1/4=50].G/.d/.c/.B/)!>)! | %37
"^a tempo"[Q:1/4=60] AAB cBA | %38
 !>![CEA]/!8va(!(([c'a']/[ae']/[fd']/[ec']/[ca]/!8va)!"^rit."[Q:1/4=55] [Bdg]/[Adf]/[Gde]/[Q:1/4=50][FAd]/[EGc]/[Q:1/4=30][DGB]/)) | %39
[Q:1/4=60] c3 c3 | (efe c3) | z2 z !>!e!>!f!>!e | !>!A2!8va(! [ac'e'a'] [a'c''e''a'']!8va)! z z |] %43
V:2
!ped! (A,,/E,/A,/B,/C/E/) A/(E/C/B,/A,/E,/)!ped-up! | %1
!ped! (A,,/E,/A,/B,/C/E/) (A/E/C/B,/A,/E,/)!ped-up! | %2
!ped! A,,/E,/G,/D/E/F/ G/F/E/D/G,/E,/!ped-up! |!ped! A,,/E,/A,/B,/C/E/ A/E/C/B,/A,/E,/!ped-up! | %4
!ped! A,,/E,/A,/B,/C/E/ A/E/C/B,/A,/E,/!ped-up! |!ped! A,,/E,/A,/B,/C/E/ A/E/C/B,/A,/E,/!ped-up! | %6
!ped! A,,/E,/G,/D/E/F/ G/F/E/D/G,/E,/!ped-up! |!ped! A,,/E,/C/E,/A,,/E,,/ A,,, z!ped-up! z | %8
!ped! F,,/C,/F,/G,/A,/C/ D/C/B,/A,/G,/C,/!ped-up! | %9
!ped! F,,/C,/F,/G,/A,/C/ D/C/B,/A,/G,/C,/!ped-up! | %10
!ped! F,,/C,/F,/G,/A,/C/ =D,,/B,,/F,/B,/F,/B,,/!ped-up! | %11
!ped! !>!E,,/C,/A,/F/E/E,/ E,,/E,/F,/E,/G,/E,/!ped-up! | %12
!ped! A,,/E,/A,/B,/C/E/ A/E/C/B,/A,/E,/!ped-up! |!ped! A,,/E,/A,/B,/C/E/ A/E/C/B,/A,/E,/!ped-up! | %14
!ped! A,,/E,/G,/D/E/F/ G/F/E/D/G,/E,/!ped-up! | %15
!ped! A,,/E,/C/A,/[Ec]/A/[I:staff -1] [Ec][I:staff +1] z z!ped-up! | %16
[K:C]!ped! [C,G,C]/[C,G,C]/[C,G,C]/[C,G,C]/[C,^F,C]/[C,G,C]/ [C,G,D]/[C,G,D]/[C,G,D]/[C,G,D]/[C,G,D]/[C,G,C]/!ped-up! | %17
 [C,G,C]/[C,G,C]/[C,G,C]/[C,G,C]/[C,^F,C]/[C,G,C]/ [C,G,D]/[C,G,D]/[C,G,D]/[C,G,D]/[C,G,D]/[C,G,C]/ | %18
 [A,CE]/[^F,A,CD]/[G,B,D]/[=F,G,B,D]/[E,G,_B,_DE]/[E,G,B,DE]/ [E,G,B,DE]/G/F/E/[F,A,=DF]/[G,,,G,,]/ | %19
 [D,F,_A,_CD]/F/E/D/[C,_E,G,=C]/[G,,,G,,]/ [C,E,_G,__B,C]/D,/E,/C,/D,/E,/ | %20
 [D,G,B,][C,D,F,A,][B,,D,G,]!ped!{/[G,,,G,,]} [E,G,CE]/[E,G,CE]/[E,G,CE]/[E,G,CE]/[E,G,CE]/[E,G,CE]/ | %21
 [F,G,B,F]/[F,G,B,F]/[F,G,B,F]/[F,G,B,F]/[F,G,B,F]/[F,G,B,F]/!ped-up!!ped!{/[G,,,G,,]} [E,G,CE]/[E,G,CE]/[E,G,CE]/[E,G,CE]/[E,G,CE]/[E,G,CE]/ | %22
 [F,G,B,F]/[F,G,B,F]/[F,G,B,F]/[F,G,B,F]/[F,G,B,F]/[F,G,B,F]/!ped-up!!ped! [C,,G,,E,G,E]!f![G,CE]!p![G,CE]!ped-up! | %23
[K:Ab][M:3/4] [A,CE]2 [E,B,E]2 (3[F,A,C]=DE | [G,B,E]2 [A,CE]2 (3[F,A,C]=DE | %25
 [A,CF]2 (3[F,A,D]EF [F,A,C]2 | [E,A,C]2 [D,E,G,B,]2 [C,E,A,]2 | %27
[M:6/8]!ped! (A,,/E,/A,/B,/C/E/) A/(E/C/B,/A,/E,/)!ped-up! | %28
!ped! (A,,/E,/A,/B,/C/E/) (A/E/C/B,/A,/E,/)!ped-up! | %29
!ped! A,,/E,/G,/D/E/F/ G/F/E/D/G,/E,/!ped-up! |!ped! A,,/E,/A,/B,/C/E/ A/E/C/B,/A,/E,/!ped-up! | %31
!ped! A,,/E,/A,/B,/C/E/ A/E/C/B,/A,/E,/!ped-up! |!ped! A,,/E,/A,/B,/C/E/ A/E/C/B,/A,/E,/!ped-up! | %33
!ped! A,,/E,/G,/D/E/F/ G/F/E/D/G,/E,/!ped-up! |!ped! A,,/E,/C/E,/A,,/E,,/ A,,, z!ped-up! z | %35
!ped! F,,/C,/F,/G,/A,/C/ D/C/B,/A,/G,/C,/!ped-up! | %36
!ped! F,,/C,/F,/G,/A,/C/ D/C/B,/A,/G,/C,/!ped-up! | %37
!ped! F,,/C,/F,/G,/A,/C/ =D,,/B,,/F,/B,/F,/B,,/!ped-up! | %38
!ped! !>!E,,/C,/A,/F/E/E,/ E,,/E,/F,/E,/G,/E,/!ped-up! | %39
!ped! A,,/E,/A,/B,/C/E/ A/E/C/B,/A,/E,/!ped-up! |!ped! A,,/E,/A,/B,/C/E/ A/E/C/B,/A,/E,/!ped-up! | %41
!ped! A,,/E,/G,/D/E/F/ G/F/E/D/G,/E,/!ped-up! | %42
!ped! A,,/E,/C/A,/[Ec]/A/[I:staff -1] [Ec][I:staff +1] A,,,2!ped-up! |] %43
V:3
 x6 | x6 | (B=AB cBE) | (BAB c3) | c3!p! c3 | (efe c3) | B=AB !>!c!>!B!>!G | %7
 !>!A3!8va(! a'!8va)! z z | F3- F=E z | F3- F=E z | F3 AGF | x/!8va(! x5/2!8va)! x3 | %12
 [CEA]2 z z2 z | x6 | B=AB !>!c!>!B!>!G | A2!8va(! z4!8va)! | %16
[K:C] [Ec]/[EG]/[E^F]/[EG]/{/B}[^DA]/[EG]/!f! [=FBg]/[FBd]/[FB^c]/[FBd]/[FB^d]/[E=G=ce]/ | %17
 [Ec]/[EG]/[E^F]/[EG]/{/B}[^DA]/[EG]/!f! [=FBg]/[FBd]/[FB^c]/[FBd]/[FB^d]/[E=G=ce]/ | %18
 [Ace]/[^FAcd]/[GBd]/[GBdg]/"_cresc."[G_B_dg]/[GBd]/ [GBdg]/[B_b]/[Aa]/[Gg]/[A=df]/ z/ | z6 | x6 | %21
 x/4[K:bass] x11/4[K:treble] x3 | x/4[K:bass] x11/4[K:treble] x3 |[K:Ab][M:3/4] x6 | x6 | x6 | x6 | %27
[M:6/8] x6 | x6 | (B=AB cBE) | (BAB c3) | c3!p! c3 | (efe c3) | B=AB !>!c!>!B!>!G | %34
 !>!A3!8va(! a'!8va)! z z | F3- F=E z | F3- F=E z | F3 AGF | x/!8va(! x5/2!8va)! x3 | %39
 [CEA]2 z z2 z | x6 | B=AB !>!c!>!B!>!G | A2!8va(! z4!8va)! |] %43

